flaticon/army-badges/target-21.svg

<svg xmlns="http://www.w3.org/2000/svg" width="32" height="32" viewBox="0 0 24 24">
    <path d="M 12 0 C 5.398438 0 0 5.359375 0 12 C 0 18.640625 5.398438 24 12 24 C 18.601562 24 24 18.601562 24 12 C 24 5.398438 18.601562 0 12 0 Z M 12 23.199219 C 5.839844 23.199219 0.800781 18.160156 0.800781 12 C 0.800781 5.839844 5.839844 0.800781 12 0.800781 C 18.160156 0.800781 23.199219 5.839844 23.199219 12 C 23.199219 18.160156 18.160156 23.199219 12 23.199219 Z M 12 23.199219"/>
    <path d="M 12 1.601562 C 6.28125 1.601562 1.601562 6.28125 1.601562 12 C 1.601562 17.761719 6.28125 22.398438 12 22.398438 C 17.71875 22.398438 22.398438 17.761719 22.398438 12 C 22.398438 6.28125 17.71875 1.601562 12 1.601562 Z M 21.589844 11.601562 L 18.441406 11.601562 L 18.441406 8.839844 C 18.441406 7.039062 16.960938 5.601562 15.199219 5.601562 L 12.398438 5.601562 L 12.398438 2.410156 C 17.363281 2.613281 21.386719 6.636719 21.589844 11.601562 Z M 16 12.398438 L 17.640625 12.398438 L 17.640625 15.199219 C 17.640625 16.558594 16.519531 17.640625 15.199219 17.640625 L 12.398438 17.640625 L 12.398438 16 C 12.398438 15.761719 12.238281 15.601562 12 15.601562 C 11.761719 15.601562 11.601562 15.761719 11.601562 16 L 11.601562 17.640625 L 8.839844 17.640625 C 7.480469 17.640625 6.398438 16.519531 6.398438 15.199219 L 6.398438 12.398438 L 8 12.398438 C 8.238281 12.398438 8.398438 12.238281 8.398438 12 C 8.398438 11.761719 8.238281 11.601562 8 11.601562 L 6.398438 11.601562 L 6.398438 8.839844 C 6.398438 7.480469 7.519531 6.398438 8.839844 6.398438 L 11.601562 6.398438 L 11.601562 8 C 11.601562 8.238281 11.761719 8.398438 12 8.398438 C 12.238281 8.398438 12.398438 8.238281 12.398438 8 L 12.398438 6.398438 L 15.199219 6.398438 C 16.558594 6.398438 17.640625 7.519531 17.640625 8.839844 L 17.640625 11.601562 L 16 11.601562 C 15.761719 11.601562 15.601562 11.761719 15.601562 12 C 15.601562 12.238281 15.761719 12.398438 16 12.398438 Z M 11.601562 2.410156 L 11.601562 5.601562 L 8.839844 5.601562 C 7.039062 5.601562 5.601562 7.078125 5.601562 8.839844 L 5.601562 11.601562 L 2.410156 11.601562 C 2.613281 6.636719 6.636719 2.613281 11.601562 2.410156 Z M 2.410156 12.398438 L 5.601562 12.398438 L 5.601562 15.199219 C 5.601562 16.960938 7.039062 18.398438 8.839844 18.398438 L 11.601562 18.398438 L 11.601562 21.589844 C 6.636719 21.386719 2.613281 17.363281 2.410156 12.398438 Z M 12.398438 21.589844 L 12.398438 18.398438 L 15.160156 18.398438 C 16.960938 18.398438 18.398438 16.960938 18.441406 15.199219 L 18.441406 12.398438 L 21.589844 12.398438 C 21.386719 17.363281 17.363281 21.386719 12.398438 21.589844 Z M 12.398438 21.589844"/>
    <path d="M 13.601562 11.601562 L 12.398438 11.601562 L 12.398438 10.398438 C 12.398438 10.160156 12.238281 10 12 10 C 11.761719 10 11.601562 10.160156 11.601562 10.398438 L 11.601562 11.601562 L 10.398438 11.601562 C 10.160156 11.601562 10 11.761719 10 12 C 10 12.238281 10.160156 12.398438 10.398438 12.398438 L 11.601562 12.398438 L 11.601562 13.601562 C 11.601562 13.839844 11.761719 14 12 14 C 12.238281 14 12.398438 13.839844 12.398438 13.601562 L 12.398438 12.398438 L 13.601562 12.398438 C 13.839844 12.398438 14 12.238281 14 12 C 14 11.761719 13.839844 11.601562 13.601562 11.601562 Z M 13.601562 11.601562"/>
</svg>

<svg xmlns="http://www.w3.org/2000/svg" width="32" height="32" viewBox="0 0 24 24">
    <path d="M12 0C5.398 0 0 5.36 0 12s5.398 12 12 12 12-5.398 12-12S18.602 0 12 0zm0 23.2C5.84 23.2.8 18.16.8 12 .8 5.84 5.84.8 12 .8 18.16.8 23.2 5.84 23.2 12c0 6.16-5.04 11.2-11.2 11.2zm0 0"/>
    <path d="M12 1.602C6.281 1.602 1.602 6.282 1.602 12c0 5.762 4.68 10.398 10.398 10.398 5.719 0 10.398-4.636 10.398-10.398 0-5.719-4.68-10.398-10.398-10.398zm9.59 10H18.44V8.84c0-1.8-1.48-3.238-3.242-3.238h-2.8V2.41c4.964.203 8.988 4.227 9.19 9.192zm-5.59.796h1.64V15.2a2.452 2.452 0 0 1-2.44 2.442h-2.802V16c0-.238-.16-.398-.398-.398-.238 0-.398.16-.398.398v1.64H8.84a2.452 2.452 0 0 1-2.442-2.44v-2.802H8c.238 0 .398-.16.398-.398 0-.238-.16-.398-.398-.398H6.398V8.84A2.452 2.452 0 0 1 8.84 6.398h2.762V8c0 .238.16.398.398.398.238 0 .398-.16.398-.398V6.398H15.2a2.452 2.452 0 0 1 2.442 2.442v2.762H16c-.238 0-.398.16-.398.398 0 .238.16.398.398.398zM11.602 2.41v3.192H8.84A3.248 3.248 0 0 0 5.602 8.84v2.762H2.41c.203-4.965 4.227-8.989 9.192-9.192zM2.41 12.398h3.192V15.2c0 1.762 1.437 3.2 3.238 3.2h2.762v3.19c-4.965-.202-8.989-4.226-9.192-9.19zm9.988 9.192v-3.192h2.762a3.28 3.28 0 0 0 3.281-3.199v-2.8h3.149c-.203 4.964-4.227 8.988-9.192 9.19zm0 0"/>
    <path d="M13.602 11.602h-1.204v-1.204c0-.238-.16-.398-.398-.398-.238 0-.398.16-.398.398v1.204h-1.204c-.238 0-.398.16-.398.398 0 .238.16.398.398.398h1.204v1.204c0 .238.16.398.398.398.238 0 .398-.16.398-.398v-1.204h1.204c.238 0 .398-.16.398-.398 0-.238-.16-.398-.398-.398zm0 0"/>
</svg>
